humanity-icon-theme/Humanity/mimes/128/text-x-preview.svg

<?xml version="1.0" encoding="UTF-8" standalone="no"?>
<!-- Created with Inkscape (http://www.inkscape.org/) -->
<svg
   xmlns:dc="http://purl.org/dc/elements/1.1/"
   xmlns:cc="http://creativecommons.org/ns#"
   xmlns:rdf="http://www.w3.org/1999/02/22-rdf-syntax-ns#"
   xmlns:svg="http://www.w3.org/2000/svg"
   xmlns="http://www.w3.org/2000/svg"
   xmlns:xlink="http://www.w3.org/1999/xlink"
   xmlns:sodipodi="http://sodipodi.sourceforge.net/DTD/sodipodi-0.dtd"
   xmlns:inkscape="http://www.inkscape.org/namespaces/inkscape"
   version="1.0"
   width="128"
   height="128"
   id="svg4486"
   sodipodi:version="0.32"
   inkscape:version="0.46"
   sodipodi:docname="text-x-preview.svg"
   inkscape:output_extension="org.inkscape.output.svg.inkscape">
  <metadata
     id="metadata51">
    <rdf:RDF>
      <cc:Work
         rdf:about="">
        <dc:format>image/svg+xml</dc:format>
        <dc:type
           rdf:resource="http://purl.org/dc/dcmitype/StillImage" />
      </cc:Work>
    </rdf:RDF>
  </metadata>
  <sodipodi:namedview
     inkscape:window-height="781"
     inkscape:window-width="1440"
     inkscape:pageshadow="2"
     inkscape:pageopacity="0.0"
     guidetolerance="10.0"
     gridtolerance="10.0"
     objecttolerance="10.0"
     borderopacity="1.0"
     bordercolor="#666666"
     pagecolor="#ffffff"
     id="base"
     showgrid="false"
     inkscape:zoom="1"
     inkscape:cx="64"
     inkscape:cy="64"
     inkscape:window-x="0"
     inkscape:window-y="24"
     inkscape:current-layer="svg4486" />
  <defs
     id="defs4488">
    <linearGradient
       id="linearGradient5048">
      <stop
         id="stop5050"
         style="stop-color:#000000;stop-opacity:0"
         offset="0" />
      <stop
         id="stop5056"
         style="stop-color:#000000;stop-opacity:1"
         offset="0.5" />
      <stop
         id="stop5052"
         style="stop-color:#000000;stop-opacity:0"
         offset="1" />
    </linearGradient>
    <linearGradient
       id="linearGradient5060">
      <stop
         id="stop5062"
         style="stop-color:#000000;stop-opacity:1"
         offset="0" />
      <stop
         id="stop5064"
         style="stop-color:#000000;stop-opacity:0"
         offset="1" />
    </linearGradient>
    <linearGradient
       id="linearGradient3104">
      <stop
         id="stop3106"
         style="stop-color:#aaaaaa;stop-opacity:1"
         offset="0" />
      <stop
         id="stop3108"
         style="stop-color:#c8c8c8;stop-opacity:1"
         offset="1" />
    </linearGradient>
    <linearGradient
       id="linearGradient3600">
      <stop
         id="stop3602"
         style="stop-color:#f4f4f4;stop-opacity:1"
         offset="0" />
      <stop
         id="stop3604"
         style="stop-color:#dbdbdb;stop-opacity:1"
         offset="1" />
    </linearGradient>
    <radialGradient
       cx="102"
       cy="112.3047"
       r="139.55859"
       id="XMLID_8_"
       gradientUnits="userSpaceOnUse">
      <stop
         id="stop41"
         style="stop-color:#b7b8b9;stop-opacity:1"
         offset="0" />
      <stop
         id="stop47"
         style="stop-color:#ececec;stop-opacity:1"
         offset="0.18851049" />
      <stop
         id="stop49"
         style="stop-color:#fafafa;stop-opacity:0"
         offset="0.25718147" />
      <stop
         id="stop51"
         style="stop-color:#ffffff;stop-opacity:0"
         offset="0.30111277" />
      <stop
         id="stop53"
         style="stop-color:#fafafa;stop-opacity:0"
         offset="0.53130001" />
      <stop
         id="stop55"
         style="stop-color:#ebecec;stop-opacity:0"
         offset="0.84490001" />
      <stop
         id="stop57"
         style="stop-color:#e1e2e3;stop-opacity:0"
         offset="1" />
    </radialGradient>
    <linearGradient
       id="linearGradient3211">
      <stop
         id="stop3213"
         style="stop-color:#ffffff;stop-opacity:1"
         offset="0" />
      <stop
         id="stop3215"
         style="stop-color:#ffffff;stop-opacity:0"
         offset="1" />
    </linearGradient>
    <linearGradient
       id="linearGradient8589">
      <stop
         id="stop8591"
         style="stop-color:#fefefe;stop-opacity:1"
         offset="0" />
      <stop
         id="stop8593"
         style="stop-color:#cbcbcb;stop-opacity:1"
         offset="1" />
    </linearGradient>
    <linearGradient
       x1="32.892288"
       y1="8.0590115"
       x2="36.358372"
       y2="5.4565363"
       id="linearGradient2455"
       xlink:href="#linearGradient8589"
       gradientUnits="userSpaceOnUse"
       gradientTransform="matrix(2.6605294,0,0,2.7751643,0.7455334,-3.5662351)" />
    <linearGradient
       x1="24"
       y1="1.9999999"
       x2="24"
       y2="46.01725"
       id="linearGradient2459"
       xlink:href="#linearGradient3211"
       gradientUnits="userSpaceOnUse"
       gradientTransform="matrix(2.7575715,0,0,2.6744155,-2.1817183,-4.1859717)" />
    <radialGradient
       cx="102"
       cy="112.3047"
       r="139.55859"
       id="radialGradient2462"
       xlink:href="#XMLID_8_"
       gradientUnits="userSpaceOnUse"
       gradientTransform="matrix(0.9787237,0,0,-1.0535153,1.3617012,127.48164)" />
    <linearGradient
       x1="25.132275"
       y1="0.98520643"
       x2="25.132275"
       y2="47.013336"
       id="linearGradient2465"
       xlink:href="#linearGradient3600"
       gradientUnits="userSpaceOnUse"
       gradientTransform="matrix(2.657139,0,0,2.5422197,0.2286615,-4.9132741)" />
    <linearGradient
       x1="-51.786404"
       y1="50.786446"
       x2="-51.786404"
       y2="2.9062471"
       id="linearGradient2467"
       xlink:href="#linearGradient3104"
       gradientUnits="userSpaceOnUse"
       gradientTransform="matrix(2.1456312,0,0,2.3791388,158.0899,-7.7465258)" />
    <linearGradient
       x1="302.85715"
       y1="366.64789"
       x2="302.85715"
       y2="609.50507"
       id="linearGradient2483"
       xlink:href="#linearGradient5048"
       gradientUnits="userSpaceOnUse"
       gradientTransform="matrix(0.1725148,0,0,0.03920058,0.6482238,98.773724)" />
    <radialGradient
       cx="605.71429"
       cy="486.64789"
       r="117.14286"
       fx="605.71429"
       fy="486.64789"
       id="radialGradient2485"
       xlink:href="#linearGradient5060"
       gradientUnits="userSpaceOnUse"
       gradientTransform="matrix(-0.05903807,0,0,0.03920058,56.929907,98.773804)" />
    <radialGradient
       cx="605.71429"
       cy="486.64789"
       r="117.14286"
       fx="605.71429"
       fy="486.64789"
       id="radialGradient2487"
       xlink:href="#linearGradient5060"
       gradientUnits="userSpaceOnUse"
       gradientTransform="matrix(0.05903808,0,0,0.03920058,69.07008,98.773804)" />
  </defs>
  <g
     transform="matrix(1.0408163,0,0,0.6302428,-1.5714269,43.690218)"
     id="g2478">
    <rect
       width="83.299995"
       height="9.5201406"
       x="21.349998"
       y="113.14653"
       id="rect2879"
       style="opacity:0.3;fill:url(#linearGradient2483);fill-opacity:1;fill-rule:nonzero;stroke:none;stroke-width:1;marker:none;visibility:visible;display:inline;overflow:visible" />
    <path
       d="m 21.35,113.14694 c 0,0 0,9.51962 0,9.51962 -3.040314,0.0179 -7.35,-2.13287 -7.35,-4.76043 0,-2.62755 3.392762,-4.75919 7.35,-4.75919 z"
       id="path2881"
       style="opacity:0.3;fill:url(#radialGradient2485);fill-opacity:1;fill-rule:nonzero;stroke:none;stroke-width:1;marker:none;visibility:visible;display:inline;overflow:visible" />
    <path
       d="m 104.64999,113.14694 c 0,0 0,9.51962 0,9.51962 3.04032,0.0179 7.35001,-2.13287 7.35001,-4.76043 0,-2.62755 -3.39277,-4.75919 -7.35001,-4.75919 z"
       id="path2883"
       style="opacity:0.3;fill:url(#radialGradient2487);fill-opacity:1;fill-rule:nonzero;stroke:none;stroke-width:1;marker:none;visibility:visible;display:inline;overflow:visible" />
  </g>
  <path
     d="m 17.499961,1.499962 c 21.311039,0 42.622077,0 63.933118,0 3.738416,1.2619859 23.822451,15.639336 29.066961,25.594247 0,30.468614 0,60.937223 0,91.405831 -31.000026,0 -62.000051,0 -93.000079,0 0,-39.000023 0,-78.000052 0,-117.000078 z"
     id="path4160"
     style="fill:url(#linearGradient2465);fill-opacity:1;stroke:url(#linearGradient2467);stroke-width:0.99992192;stroke-linecap:butt;stroke-linejoin:round;stroke-miterlimit:4;stroke-opacity:1;stroke-dasharray:none;stroke-dashoffset:0;display:inline" />
  <path
     d="M 18.978723,118 C 18.439449,118 18,117.52697 18,116.94648 L 18,3.1668773 C 18,2.5853392 18.439449,2.1133645 18.978723,2.1133645 39.22709,2.4045657 61.66587,1.6777678 81.889633,2.1858707 L 109.71323,26.088148 110,116.94648 C 110,117.52697 109.56154,118 109.02128,118 l -90.042557,0 z"
     id="path4191"
     style="fill:url(#radialGradient2462);fill-opacity:1" />
  <path
     d="m 109.50003,26.517935 c 0,29.94778 0,61.034321 0,90.982105 -30.333353,0 -60.666712,0 -91.00007,0 0,-38.333364 0,-76.666721 0,-115.0000784 20.852737,0 42.202796,0 63.055535,0"
     id="path2435"
     style="opacity:0.6;fill:none;stroke:url(#linearGradient2459);stroke-width:0.99992174;stroke-linecap:butt;stroke-linejoin:round;stroke-miterlimit:4;stroke-opacity:1;stroke-dasharray:none;stroke-dashoffset:0;display:inline" />
  <path
     d="M 71.923062,1.8392376 C 84.951381,1.8392376 78.473694,27.646803 78.473694,27.646803 C 78.473694,27.646803 109.98379,20.457276 109.98379,33.209225 C 109.98379,33.209225 110.05573,27.150866 110.05573,27.150866 C 103.32475,20.41989 89.06065,7.2507492 79.88133,2.2376883 C 79.88133,2.2376883 71.923062,1.8392376 71.923062,1.8392376 L 71.923062,1.8392376 z"
     id="path3232"
     style="opacity:0.05;fill:#000000;fill-opacity:1;fill-rule:evenodd;stroke:none;display:inline"
     sodipodi:nodetypes="cccsscc" />
  <path
     d="M 74.395876,1.8392376 C 86.577743,1.8392376 80.520913,25.970079 80.520913,25.970079 C 80.520913,25.970079 109.98379,20.329555 109.98379,32.11062 C 111.54407,22.058999 83.996871,-1.2887721 74.395876,1.8392376 L 74.395876,1.8392376 z"
     id="path3230"
     style="opacity:0.1;fill:#000000;fill-opacity:1;fill-rule:evenodd;stroke:none;display:inline"
     sodipodi:nodetypes="ccccc" />
  <path
     d="M 30.770506,9.4044296 C 30.770506,9.4044296 41.128148,7.6020829 41.128148,12.223174 C 41.128148,9.6134507 35.296571,2.3137247 28.617256,0.92125832 C 31.864351,2.1641973 31.423163,6.3282809 30.770506,9.4044296 z"
     id="path12038"
     style="opacity:0.15;fill:#000000;fill-opacity:1;fill-rule:evenodd;stroke:none;display:inline"
     transform="matrix(2.6666667,0,0,2.6666667,0.3087257,-0.6174513)"
     sodipodi:nodetypes="cscc" />
  <path
     d="m 76.62141,1.8392376 c 8.497314,0 6.228693,20.4316764 6.228693,20.4316764 0,0 27.133687,-2.616144 27.133687,9.706766 0,-3.002504 0.2291,-5.152653 -0.35674,-6.089581 C 105.41822,19.156956 87.239007,4.052365 80.67425,2.0726634 80.182991,1.9245177 79.093706,1.8392376 76.62141,1.8392376 z"
     id="path4474"
     style="fill:url(#linearGradient2455);fill-opacity:1;fill-rule:evenodd;stroke:none;display:inline" />
</svg>

<?xml version="1.0" encoding="UTF-8" standalone="no"?>
<!-- Created with Inkscape (http://www.inkscape.org/) -->
<svg id="svg4486" xmlns:rdf="http://www.w3.org/1999/02/22-rdf-syntax-ns#" xmlns="http://www.w3.org/2000/svg" height="128" width="128" version="1.0" xmlns:cc="http://creativecommons.org/ns#" xmlns:xlink="http://www.w3.org/1999/xlink" xmlns:dc="http://purl.org/dc/elements/1.1/">
 <metadata id="metadata51">
  <rdf:RDF>
   <cc:Work rdf:about="">
    <dc:format>image/svg+xml</dc:format>
    <dc:type rdf:resource="http://purl.org/dc/dcmitype/StillImage"/>
   </cc:Work>
  </rdf:RDF>
 </metadata>
 <defs id="defs4488">
  <linearGradient id="linearGradient5060">
   <stop id="stop5062" offset="0"/>
   <stop id="stop5064" style="stop-opacity:0" offset="1"/>
  </linearGradient>
  <linearGradient id="linearGradient2455" y2="5.4565" gradientUnits="userSpaceOnUse" x2="36.358" gradientTransform="matrix(2.6605 0 0 2.7752 .74553 -3.5662)" y1="8.059" x1="32.892">
   <stop id="stop8591" style="stop-color:#fefefe" offset="0"/>
   <stop id="stop8593" style="stop-color:#cbcbcb" offset="1"/>
  </linearGradient>
  <linearGradient id="linearGradient2459" y2="46.017" gradientUnits="userSpaceOnUse" x2="24" gradientTransform="matrix(2.7576 0 0 2.6744 -2.1817 -4.186)" y1="2" x1="24">
   <stop id="stop3213" style="stop-color:#fff" offset="0"/>
   <stop id="stop3215" style="stop-color:#fff;stop-opacity:0" offset="1"/>
  </linearGradient>
  <radialGradient id="radialGradient2462" gradientUnits="userSpaceOnUse" cy="112.3" cx="102" gradientTransform="matrix(.97872 0 0 -1.0535 1.3617 127.48)" r="139.56">
   <stop id="stop41" style="stop-color:#b7b8b9" offset="0"/>
   <stop id="stop47" style="stop-color:#ececec" offset=".18851"/>
   <stop id="stop49" style="stop-color:#fafafa;stop-opacity:0" offset=".25718"/>
   <stop id="stop51" style="stop-color:#fff;stop-opacity:0" offset=".30111"/>
   <stop id="stop53" style="stop-color:#fafafa;stop-opacity:0" offset=".53130"/>
   <stop id="stop55" style="stop-color:#ebecec;stop-opacity:0" offset=".84490"/>
   <stop id="stop57" style="stop-color:#e1e2e3;stop-opacity:0" offset="1"/>
  </radialGradient>
  <linearGradient id="linearGradient2465" y2="47.013" gradientUnits="userSpaceOnUse" x2="25.132" gradientTransform="matrix(2.6571 0 0 2.5422 .22866 -4.9133)" y1=".98521" x1="25.132">
   <stop id="stop3602" style="stop-color:#f4f4f4" offset="0"/>
   <stop id="stop3604" style="stop-color:#dbdbdb" offset="1"/>
  </linearGradient>
  <linearGradient id="linearGradient2467" y2="2.9062" gradientUnits="userSpaceOnUse" x2="-51.786" gradientTransform="matrix(2.1456 0 0 2.3791 158.09 -7.7465)" y1="50.786" x1="-51.786">
   <stop id="stop3106" style="stop-color:#aaa" offset="0"/>
   <stop id="stop3108" style="stop-color:#c8c8c8" offset="1"/>
  </linearGradient>
  <linearGradient id="linearGradient2483" y2="609.51" gradientUnits="userSpaceOnUse" x2="302.86" gradientTransform="matrix(.17251 0 0 .039201 .64822 98.774)" y1="366.65" x1="302.86">
   <stop id="stop5050" style="stop-opacity:0" offset="0"/>
   <stop id="stop5056" offset=".5"/>
   <stop id="stop5052" style="stop-opacity:0" offset="1"/>
  </linearGradient>
  <radialGradient id="radialGradient2485" xlink:href="#linearGradient5060" gradientUnits="userSpaceOnUse" cy="486.65" cx="605.71" gradientTransform="matrix(-.059038 0 0 .039201 56.93 98.774)" r="117.14"/>
  <radialGradient id="radialGradient2487" xlink:href="#linearGradient5060" gradientUnits="userSpaceOnUse" cy="486.65" cx="605.71" gradientTransform="matrix(.059038 0 0 .039201 69.07 98.774)" r="117.14"/>
 </defs>
 <g id="g2478" transform="matrix(1.0408 0 0 .63024 -1.5714 43.69)">
  <rect id="rect2879" style="opacity:.3;fill:url(#linearGradient2483)" height="9.5201" width="83.3" y="113.15" x="21.35"/>
  <path id="path2881" style="opacity:.3;fill:url(#radialGradient2485)" d="m21.35 113.15v9.5196c-3.0403 0.0179-7.35-2.1329-7.35-4.7604 0-2.6276 3.3928-4.7592 7.35-4.7592z"/>
  <path id="path2883" style="opacity:.3;fill:url(#radialGradient2487)" d="m104.65 113.15v9.5196c3.0403 0.0179 7.35-2.1329 7.35-4.7604 0-2.6276-3.3928-4.7592-7.35-4.7592z"/>
 </g>
 <path id="path4160" style="stroke-linejoin:round;stroke:url(#linearGradient2467);stroke-width:.99992;fill:url(#linearGradient2465)" d="m17.5 1.5h63.933c3.7384 1.262 23.822 15.639 29.067 25.594v91.406h-93v-117z"/>
 <path id="path4191" style="fill:url(#radialGradient2462)" d="m18.979 118c-0.54 0-0.979-0.47-0.979-1.05v-113.78c0-0.5847 0.439-1.0566 0.979-1.0566 20.248 0.2912 42.687-0.4356 62.911 0.0725l27.82 23.902 0.29 90.862c0 0.58-0.44 1.05-0.98 1.05h-90.043z"/>
 <path id="path2435" style="opacity:.6;stroke-linejoin:round;stroke:url(#linearGradient2459);stroke-width:.99992;fill:none" d="m109.5 26.518v90.982h-91v-115h63.056"/>
 <path id="path3232" style="opacity:.05;fill-rule:evenodd" d="m71.923 1.8392c13.028 0 6.551 25.808 6.551 25.808s31.506-7.19 31.506 5.562l0.08-6.058c-6.74-6.731-20.999-19.9-30.179-24.913 0-0.0003-7.958-0.3988-7.958-0.3988z"/>
 <path id="path3230" style="opacity:.1;fill-rule:evenodd" d="m74.396 1.8392c12.182 0 6.125 24.131 6.125 24.131s29.459-5.64 29.459 6.141c1.56-10.052-25.983-33.4-35.584-30.272v0.0002z"/>
 <path id="path12038" style="opacity:.15;fill-rule:evenodd" transform="matrix(2.6667 0 0 2.6667 .30873 -.61745)" d="m30.771 9.4044s10.357-1.8023 10.357 2.8186c0-2.6095-5.831-9.9093-12.511-11.302 3.247 1.2432 2.806 5.4073 2.154 8.4834z"/>
 <path id="path4474" style="fill:url(#linearGradient2455);fill-rule:evenodd" d="m76.621 1.8392c8.4973 0 6.2287 20.432 6.2287 20.432s27.134-2.6161 27.134 9.7068c0-3.0025 0.2291-5.1527-0.35674-6.0896-4.21-6.731-22.391-21.836-28.956-23.815-0.491-0.1485-1.58-0.2338-4.053-0.2338z"/>
</svg>
